X: 4
T: Road To Cashel, The
Z: irishfiddleCT
S: https://thesession.org/tunes/3270#setting16339
R: reel
M: 4/4
L: 1/8
K: Edor
FEED ~E3G | FE~E2 FABA | FEED ~E3 G | FDDc dABA :|!~B3d ef{a}fe|df~f2 afed|Bdge ~f3e|dBAF {G}FE{F}ED|!~B3d ef{a}fe|df ~f2 aefa|bf~f2 aefa|bfaf edBA|!
